icons/brush-3-line.svg

<svg viewBox="0 0 24 24" fill="currentColor" xmlns="http://www.w3.org/2000/svg">
    <path d="M8 19.9967V14.9967H10V19.9967H19V12.9967H5V19.9967H8ZM4 10.9967H20V7.9967H14V3.9967H10V7.9967H4V10.9967ZM3 20.9967V12.9967H2V6.9967C2 6.44442 2.44772 5.9967 3 5.9967H8V2.9967C8 2.44442 8.44772 1.9967 9 1.9967H15C15.5523 1.9967 16 2.44442 16 2.9967V5.9967H21C21.5523 5.9967 22 6.44442 22 6.9967V12.9967H21V20.9967C21 21.549 20.5523 21.9967 20 21.9967H4C3.44772 21.9967 3 21.549 3 20.9967Z"/>
</svg>

<svg xmlns="http://www.w3.org/2000/svg" viewBox="0 0 24 24">
    <g>
        <path fill="none" d="M0 0h24v24H0z"/>
        <path d="M8 20v-5h2v5h9v-7H5v7h3zm-4-9h16V8h-6V4h-4v4H4v3zM3 21v-8H2V7a1 1 0 0 1 1-1h5V3a1 1 0 0 1 1-1h6a1 1 0 0 1 1 1v3h5a1 1 0 0 1 1 1v6h-1v8a1 1 0 0 1-1 1H4a1 1 0 0 1-1-1z"/>
    </g>
</svg>
